packages/katcn/src/icons/svg/hashtag-solid.svg

<svg width="24" height="24" viewBox="0 0 24 24" fill="none" xmlns="http://www.w3.org/2000/svg">
<path d="M21.3 6.53385H19L19.6 4.13909C19.8 3.24106 19.3 2.34302 18.4 2.04368C17.5 1.84412 16.6 2.34302 16.3 3.24106L15.4 6.53385H11.4L12 4.13909C12.2 3.24106 11.7 2.34302 10.8 2.04368C10 1.84412 9.1 2.34302 8.9 3.24106L8 6.53385H4.7C3.8 6.53385 3 7.3321 3 8.23014C3 9.12817 3.8 9.92643 4.7 9.92643H7L5.9 14.0175H2.7C1.8 14.0175 1 14.8157 1 15.7138C1 16.6118 1.8 17.41 2.7 17.41H5L4.4 19.8048C4.2 20.7028 4.7 21.6009 5.6 21.9002C5.7 21.9002 5.9 22 6 22C6.7 22 7.4 21.5011 7.6 20.8026L10.6 9.92643H14.6L13.4 14.0175H12C11.1 14.0175 10.3 14.8157 10.3 15.7138C10.3 16.6118 11.1 17.41 12 17.41H12.5L11.9 19.8048C11.7 20.7028 12.2 21.6009 13.1 21.9002C13.2 21.9002 13.4 22 13.5 22C14.2 22 14.9 21.5011 15.1 20.8026L16 17.5098H19.2C20.1 17.5098 20.9 16.7116 20.9 15.8135C20.9 14.9155 20.2 14.0175 19.3 14.0175H17L18.1 9.92643H21.3C22.2 9.92643 23 9.12817 23 8.23014C23 7.3321 22.2 6.53385 21.3 6.53385Z" fill="black"/>
</svg>

<svg xmlns="http://www.w3.org/2000/svg" fill="none" viewBox="0 0 24 24"><path fill="#000" d="M21.3 6.534H19l.6-2.395c.2-.898-.3-1.796-1.2-2.095-.9-.2-1.8.299-2.1 1.197l-.9 3.293h-4l.6-2.395c.2-.898-.3-1.796-1.2-2.095-.8-.2-1.7.299-1.9 1.197L8 6.534H4.7c-.9 0-1.7.798-1.7 1.696s.8 1.696 1.7 1.696H7l-1.1 4.092H2.7c-.9 0-1.7.798-1.7 1.696s.8 1.696 1.7 1.696H5l-.6 2.395c-.2.898.3 1.796 1.2 2.095.1 0 .3.1.4.1.7 0 1.4-.499 1.6-1.197l3-10.877h4l-1.2 4.092H12c-.9 0-1.7.798-1.7 1.696s.8 1.696 1.7 1.696h.5l-.6 2.395c-.2.898.3 1.796 1.2 2.095.1 0 .3.1.4.1.7 0 1.4-.499 1.6-1.197l.9-3.293h3.2c.9 0 1.7-.798 1.7-1.697 0-.898-.7-1.796-1.6-1.796H17l1.1-4.09h3.2c.9 0 1.7-.799 1.7-1.697s-.8-1.696-1.7-1.696"/></svg>
